X:1
T:En avant blonde
C:Traditionnel Louisiane, abc file by Bernard Loffet
L:1/8
Q:320
M:3/4
K:C
[A2A,2][c2A,2][d2A,2]|[e2A,2]A,2[e2A,2]|[G2G,2][B2G,2][c2G,2]|[d2G,2]G,2G,2|[d2G,2][c2G,2][B2G,2]|[A2F,2]F,2[c2F,2]|[B2G,2]G,2[G2G,2]|[A2A,2]A,2A,2|[A2A,2][c2A,2][d2A,2]| \
[e2A,2]A,2[e2A,2]|[G2G,2][B2G,2][c2G,2]|[d2G,2]G,2G,2|[d2G,2][c2G,2][B2G,2]|[A2F,2]F,2[c2F,2]|[B2G,2]G,2[G2G,2]|[A2A,2]A,2A,2|[e2A,2][eA,]d[cA,]d|[e2A,2]A,2[c2A,2]| \
[d2G,2][dG,]c[BG,]c|[d2G,2]G,2G,2|[e2F,2][eF,]d[cF,]d|[e2F,2]F,2[c2F,2]|[d2G,2][c2G,2][B2G,2]|[A2A,2]A,2A,2|[e2A,2][eA,]d[cA,]d|[e2A,2]A,2[c2A,2]|[d2G,2][dG,]c[BG,]c| \
[d2G,2]G,2G,2|[e2F,2][eF,]d[cF,]d|[e2F,2]F,2[c2F,2]|[d2G,2][c2G,2][B2G,2]|[A2A,2]A,2A,2| \
Z:Created with TablEdit http://www.tabledit.com/ by Bernard Loffet
